public/images/logos/searchcode.svg

<?xml version="1.0" encoding="UTF-8"?><svg id="a" xmlns="http://www.w3.org/2000/svg" viewBox="0 0 280 80"><path d="m24.45,11.61h.75c4.6,2.09,8.93,4.71,13.33,7.21,3.63,2.24,7.47,4.22,10.79,6.9.34,1.13.51,2.3.5,3.48.28,6.79.22,13.61,0,20.4,0,1.57-.2,3.14-.57,4.67-2.1,1.87-4.67,3.12-7,4.67l-5.8-6.95c4.37-4.35,6.05-10.71,4.4-16.65-2.2-8.13-11.23-13.53-19.39-11.48-8.93,1.97-14.57,10.8-12.6,19.73,1.22,5.54,5.19,10.06,10.52,12,3.83,1.36,8.02,1.31,11.82-.13,1.51,2.45,3.01,4.9,4.52,7.35-3.41,1.97-6.92,3.73-10.37,5.6h-.93c-1.23-1.15-2.92-1.53-4.33-2.4-6.68-3.74-13.42-7.34-19.59-11.83-.38-3.57-.44-7.17-.49-10.77v-5.19c.1-4.13.08-8.27.56-12.38,7.52-5.44,15.89-9.61,23.89-14.22Z" style="stroke-width:0px;"/><path d="m166.89,18.52c2.16-.42,4.34-.75,6.53-1.1v10.97c3.35-.79,7.23-.84,10.12,1.3,2.52,1.93,3.11,5.3,3.18,8.29.06,4.47,0,8.94,0,13.41h-6.53v-12.81c-.09-1.58-.13-3.48-1.47-4.57-1.58-1.04-3.55-.41-5.27-.21-.1,5.87,0,11.75-.07,17.62h-6.46c-.02-10.94.04-21.89-.02-32.88Z" style="stroke-width:0px;"/><path d="m248.56,18.52c2.15-.33,4.3-.67,6.44-1.04.07,11.08,0,22.17,0,33.25-4.41,1.05-9.13,1.87-13.6.72-3.77-1.02-6.63-4.08-7.39-7.91-.82-4.24-.35-9.09,2.5-12.52,2.86-3.43,8.05-3.73,11.97-2.09,0-3.47-.06-6.94,0-10.42m-5.75,15.4c-1.68.88-2.26,2.89-2.38,4.67-.19,2.38.13,5.14,2.04,6.79,1.69,1.45,4.07,1.03,6.1.93v-12c-1.82-.67-3.91-1.33-5.77-.39Z" style="stroke-width:0px;"/><path d="m66.69,29.16c3.96-2.17,8.76-1.43,12.91-.21-.39,1.68-.77,3.38-1.15,5.06-2.46-.67-5.16-1.49-7.67-.58-.75.4-1.04,1.33-.65,2.08.14.28.37.5.65.65,2.6,1.5,5.77,2.03,8.02,4.14,1.87,1.71,2.08,4.54,1.51,6.85s-3.03,3.89-5.37,4.42c-4.02.83-8.2.51-12.04-.93.36-1.75.73-3.51,1.07-5.26,2.8,1,5.93,1.75,8.94,1.15.78-.13,1.3-.87,1.17-1.65-.06-.38-.28-.72-.6-.94-2.35-1.67-5.35-2.09-7.65-3.85-3.42-2.69-3.05-8.87.86-10.94Z" style="stroke-width:0px;"/><path d="m85.57,31.59c3.85-4.75,12.09-5.11,16.12-.42,2.58,2.99,2.73,7.18,2.52,10.92h-14.93c.35,1.72,1.55,3.15,3.18,3.8,3.11,1.05,6.53.45,9.57-.55.26,1.77.85,3.56.75,5.35-3.45,1.22-7.14,1.61-10.77,1.12-3.76-.48-6.97-2.95-8.4-6.47-1.57-4.51-1.22-10.01,1.97-13.75m3.73,5.98c2.91.12,5.82.05,8.73.06-.19-2.25-1.87-4.67-4.31-4.41-2.45-.15-3.96,2.15-4.4,4.31l-.02.04Z" style="stroke-width:0px;"/><path d="m108.34,28.85c4.33-.93,9.08-1.78,13.31,0,2.8,1.13,4.17,4.13,4.26,6.99.19,4.97,0,9.94.09,14.93-5.08,1.01-10.54,1.92-15.57.27-5.03-1.65-5.79-9.68-1.23-12.32,3.2-1.87,7.08-1.74,10.62-1.22-.14-1.55-.55-3.46-2.28-3.93-2.8-.73-5.67-.1-8.4.55-.28-1.75-.56-3.5-.81-5.25m5.76,13.16c-1.24.59-1.76,2.07-1.17,3.31.23.47.6.86,1.06,1.11,1.87.69,3.83.38,5.73.3v-5.02c-1.85-.21-3.83-.46-5.61.27v.03Z" style="stroke-width:0px;"/><path d="m130.27,29.6c4.78-1.62,10-2.27,14.93-.87-.35,1.81-.71,3.62-1.07,5.43-2.39-.67-4.89-.81-7.34-.4v17.66h-6.44c-.17-7.24-.06-14.53-.08-21.82Z" style="stroke-width:0px;"/><path d="m151.91,29.01c3.66-1.87,8.03-1.33,11.79-.06-.38,1.77-.83,3.53-1.3,5.27-2.41-.74-5.18-1.38-7.52-.12s-2.8,4.28-2.63,6.73c.1,2.03.93,4.41,3.06,5.12,2.58.87,5.38.35,7.93-.35.3,1.76.59,3.53.89,5.3-4.72,1.57-10.53,1.87-14.63-1.37-3.27-2.56-4.18-7.04-3.83-10.99.26-4.06,2.63-7.68,6.24-9.54Z" style="stroke-width:0px;"/><path d="m195.63,29.16c3.73-2.04,8.27-1.57,12.13-.14-.45,1.73-.89,3.46-1.33,5.2-2.39-.7-5.11-1.36-7.47-.15s-2.9,4.28-2.72,6.75c.1,2.1,1,4.55,3.22,5.2,2.54.77,5.28.31,7.77-.44.3,1.77.61,3.55.93,5.32-4.72,1.59-10.51,1.87-14.63-1.34-3.13-2.42-4.1-6.64-3.89-10.41.08-4.15,2.36-7.95,5.98-9.99Z" style="stroke-width:0px;"/><path d="m216.25,28.41c4.01-1.32,8.85-.47,11.81,2.66,3.82,4.13,4.14,10.79,1.54,15.64-3.38,6.35-13.32,7.11-17.94,1.76-2.8-3.26-3.48-7.96-2.57-12.13.82-3.72,3.52-6.74,7.12-7.98m1.67,5.5c-1.52,1.08-2.44,2.81-2.5,4.67-.18,2.19,0,4.61,1.42,6.39,1.54,1.75,4.21,1.91,5.95.37.3-.27.57-.58.78-.92,1.37-2.69,1.46-5.85.26-8.61-1.05-2.11-3.62-2.98-5.73-1.93-.05.03-.1.05-.15.08l-.04-.05Z" style="stroke-width:0px;"/><path d="m261.33,31.48c3.73-4.51,11.42-4.98,15.61-.84,2.17,2.13,2.88,5.24,3.06,8.17v3.24c-5.02.06-10.03,0-15.05,0,.56,1.5,1.33,3.09,2.95,3.68,3.18,1.26,6.73.54,9.89-.41.3,1.79.59,3.57.84,5.37-3.67,1.05-7.56,1.73-11.35,1.01-3.54-.61-6.52-3-7.9-6.32-1.67-4.55-1.31-10.15,1.95-13.93m3.73,6.1c2.9,0,5.81,0,8.74,0-.24-2.2-1.79-4.58-4.26-4.41-2.52-.09-4.14,2.19-4.48,4.45v-.05Z" style="stroke-width:0px;"/><path d="m21.68,29.57c5.76-1.87,11.94,1.28,13.81,7.04s-1.28,11.94-7.04,13.81c-5.76,1.87-11.94-1.28-13.81-7.04-.56-1.72-.68-3.54-.36-5.32.71-3.98,3.56-7.24,7.4-8.48Z" style="stroke-width:0px;"/></svg>

<?xml version="1.0" encoding="UTF-8" standalone="no"?>
<svg id="a" viewBox="0 0 32 32" version="1.1" sodipodi:docname="searchcode.svg" width="32" height="32" inkscape:version="1.4-beta2 (9aaf4f34, 2024-07-30)" xmlns:inkscape="http://www.inkscape.org/namespaces/inkscape" xmlns:sodipodi="http://sodipodi.sourceforge.net/DTD/sodipodi-0.dtd" xmlns="http://www.w3.org/2000/svg" xmlns:svg="http://www.w3.org/2000/svg">
  <defs id="defs12" />
  <sodipodi:namedview id="namedview12" pagecolor="#ffffff" bordercolor="#000000" borderopacity="0.25" inkscape:showpageshadow="2" inkscape:pageopacity="0.0" inkscape:pagecheckerboard="0" inkscape:deskcolor="#d1d1d1" inkscape:zoom="4.0215163" inkscape:cx="14.173758" inkscape:cy="12.557453" inkscape:window-width="1440" inkscape:window-height="790" inkscape:window-x="0" inkscape:window-y="0" inkscape:window-maximized="1" inkscape:current-layer="a" />
  <g id="g12" transform="matrix(0.56338028,0,0,0.56338028,1.9103746,-6.540845)">
    <path d="m 24.45,11.61 h 0.75 c 4.6,2.09 8.93,4.71 13.33,7.21 3.63,2.24 7.47,4.22 10.79,6.9 0.34,1.13 0.51,2.3 0.5,3.48 0.28,6.79 0.22,13.61 0,20.4 0,1.57 -0.2,3.14 -0.57,4.67 -2.1,1.87 -4.67,3.12 -7,4.67 l -5.8,-6.95 C 40.82,47.64 42.5,41.28 40.85,35.34 38.65,27.21 29.62,21.81 21.46,23.86 12.53,25.83 6.89,34.66 8.86,43.59 c 1.22,5.54 5.19,10.06 10.52,12 3.83,1.36 8.02,1.31 11.82,-0.13 1.51,2.45 3.01,4.9 4.52,7.35 -3.41,1.97 -6.92,3.73 -10.37,5.6 H 24.42 C 23.19,67.26 21.5,66.88 20.09,66.01 13.41,62.27 6.67,58.67 0.5,54.18 0.12,50.61 0.06,47.01 0.01,43.41 V 38.22 C 0.11,34.09 0.09,29.95 0.57,25.84 8.09,20.4 16.46,16.23 24.46,11.62 Z" style="stroke-width:0px" id="path1" />
    <path d="m 21.68,29.57 c 5.76,-1.87 11.94,1.28 13.81,7.04 1.87,5.76 -1.28,11.94 -7.04,13.81 -5.76,1.87 -11.94,-1.28 -13.81,-7.04 -0.56,-1.72 -0.68,-3.54 -0.36,-5.32 0.71,-3.98 3.56,-7.24 7.4,-8.48 z" style="stroke-width:0px" id="path12" />
  </g>
</svg>
